X:1719b
T:Polska efter Anton Sundvisson
T:(rev.)
R:Polska
M:3/4
L:1/8
Q:1/4=150
K:D
V:1
{f^g}a>f (3d(fd) Ad|d>A FA dA|c>A EA (3c(Ac)|d>A (3F(AF) Dz/uf/|!
a>f (3d(fd) Ad|d>A FA dA|c>A EA (3c(Ac)|{c}d2 (d3 .uf)::!
V:2
f>d A2 [F2A2]|A,>F DF AF|A,>C A,C (3E(CE)|A>F (3D(FD) A,z/d/|!
f>d (3A(dA) FA|A,>F DF AF|A,>C A,C (3E(CE)|{E}[F2A2]([F3A3].d)::!
V:1
K:A
(3ve(fe) c>e af|(3ve(fe) c>e ae|ge Be (3g(eg)|a>e (3c(ec) Az/.uf/|!
(vef/e/ c>)ue af|(3ve(fe) c>e ae|ge Be (3g(eg)|[1{g}a2 a3 uf:|[2{g}a2 a3z|]
V:2
K:A
(3c(dc) A>c fd|(3c(dc) A>c ec|ec EG (3B(GB)|e>c (3A(cA) Ez/.d/|!
(c2 A>)uc fd|(3c(dc) A>c ec|BG EG (3B(GB)|[1{B}[c2e2][c3e3]ud:|[2[c2e2][c3e3]z|]

(:musicend:)
(:music:)
